icons/core/star-fill.svg

<svg width="32" height="32" viewBox="0 0 32 32" fill="none" xmlns="http://www.w3.org/2000/svg">
<path fill-rule="evenodd" clip-rule="evenodd" d="M17.1289 1.3789C16.6768 0.427849 15.3233 0.427868 14.8711 1.3789L10.8886 9.75553L1.72006 10.9686C0.679081 11.1063 0.261514 12.3884 1.02176 13.1128L7.73178 19.5058L6.04729 28.6361C5.85645 29.6706 6.95075 30.4638 7.87451 29.9606L16 25.5344L24.1256 29.9606C25.0493 30.4638 26.1436 29.6706 25.9528 28.6361L24.2683 19.5058L30.9783 13.1128C31.7385 12.3884 31.321 11.1063 30.28 10.9686L21.1115 9.75553L17.1289 1.3789Z" fill="black"/>
</svg>

<svg viewBox="0 0 32 32" xmlns="http://www.w3.org/2000/svg"><path fill-rule="evenodd" d="M17.129 1.379c-.452-.951-1.806-.951-2.258 0L10.89 9.756 1.72 10.969c-1.04.137-1.458 1.42-.698 2.144l6.71 6.393-1.685 9.13c-.19 1.035.904 1.828 1.828 1.325L16 25.534l8.126 4.427c.923.503 2.018-.29 1.827-1.325l-1.685-9.13 6.71-6.393c.76-.725.343-2.007-.698-2.144l-9.169-1.213-3.982-8.377z"/></svg>
